frontend/public/Images/Brand/highlight.svg

<svg width="121" height="11" viewBox="0 0 121 11" fill="none" xmlns="http://www.w3.org/2000/svg">
<path d="M0 0.000426292C4.81511 2.41239 9.80068 4.03254 14.7948 5.49434L18.5531 6.50541L22.3285 7.3703C24.8426 8.00375 27.3822 8.34483 29.9134 8.80773C40.0635 10.501 50.2817 11.0857 60.483 10.9882C65.5793 10.7812 70.6842 10.6715 75.772 10.0624C78.3117 9.77008 80.8598 9.61172 83.391 9.19755C85.9221 8.80773 88.4532 8.39356 90.9844 7.95502L94.7768 7.29721C96.0381 7.01704 97.2994 6.76122 98.5522 6.45668L106.086 4.67817C111.089 3.30164 116.057 1.73022 121 0.000426292C115.904 0.390238 110.867 1.16986 105.813 1.71803L98.2369 2.49766C96.9756 2.61947 95.7143 2.77783 94.4615 2.9362L90.6776 3.24074C88.155 3.42346 85.6323 3.63055 83.1183 3.862C80.5956 4.06909 78.073 4.15436 75.559 4.31272C70.5223 4.70253 65.477 4.72689 60.4403 4.9218C50.3499 5.01925 40.2765 4.79998 30.2031 4.08127C27.689 3.88636 25.1664 3.69146 22.6523 3.41128L18.877 3.03365L15.1016 2.5342C10.0563 1.91294 5.02817 1.09677 0 0.000426292Z" fill="#E50012"/>
</svg>

<svg width="121" height="11" fill="none" xmlns="http://www.w3.org/2000/svg"><path d="M0 0c4.815 2.412 9.8 4.033 14.795 5.494l3.758 1.011 3.775.865c2.515.634 5.054.975 7.585 1.438 10.15 1.693 20.369 2.278 30.57 2.18 5.096-.207 10.201-.316 15.289-.926 2.54-.292 5.088-.45 7.619-.864 2.531-.39 5.062-.804 7.593-1.243l3.793-.658c1.261-.28 2.522-.536 3.775-.84l7.534-1.779A229.444 229.444 0 00121 0c-5.096.39-10.133 1.17-15.187 1.718l-7.576.78c-1.261.121-2.523.28-3.775.438l-3.784.305c-2.523.182-5.046.39-7.56.621-2.522.207-5.045.292-7.559.45-5.037.39-10.082.415-15.119.61-10.09.097-20.163-.122-30.237-.84-2.514-.196-5.037-.39-7.55-.67l-3.776-.378-3.775-.5C10.056 1.913 5.028 1.097 0 0z" fill="#E50012"/></svg>
